;FLAVOR:Marlin
;TIME:6380
;Filament used: 3.39191m
;Layer height: 0.175
;Generated with Cura_SteamEngine 3.1.0
M190 S60
M104 S200
M109 S200
M82 ; absolute extrusion mode
G21       ;metric values
G90       ;absolute positioning
M82       ;set extruder to absolute mode
M107      ;start with the fan off
G28       ;home
G1 Z15.0 F840
G92 E0    ;zero the extruded length
G1 F200 E3              ;extrude 3mm of feed stock
G92 E0                  ;zero the extruded length again
G1 F840
M117 Printing...
;LAYER_COUNT:97
;LAYER:0
M107
G0 F1470 X79.933 Y67.849 Z0.3
;TYPE:SKIRT
G1 X80.322 Y67.48 E0.02675
G1 X80.761 Y67.172 E0.0535
G1 X81.241 Y66.934 E0.08023
G1 X81.752 Y66.769 E0.10702
G1 X82.281 Y66.682 E0.13377
G1 X82.567 Y66.668 E0.14806
G1 X106.443 Y66.459 E1.33928
G1 X106.979 Y66.494 E1.36608
G1 X107.503 Y66.609 E1.39284
G1 X108.004 Y66.8 E1.41959
G1 X108.471 Y67.063 E1.44633
G1 X108.894 Y67.393 E1.4731
G1 X109.263 Y67.782 E1.49985
G1 X109.434 Y68.008 E1.51399
G1 X112.282 Y72.117 E1.76341
G1 X115.622 Y76.422 E2.03525
G1 X119.211 Y80.544 E2.30793
G1 X124.226 Y85.715 E2.66731
G1 X124.57 Y86.126 E2.69405
G1 X124.863 Y86.613 E2.7224
G1 X125.211 Y87.31 E2.76127
G1 X125.414 Y87.806 E2.78801
G1 X125.539 Y88.312 E2.81401
G1 X125.697 Y89.237 E2.86083
G1 X125.748 Y89.812 E2.88963
G1 X125.804 Y96.37 E3.21682
G1 X125.797 Y96.633 E3.22994
G1 X125.402 Y102.752 E3.53586
G1 X125.35 Y106.867 E3.74117
G1 X125.501 Y125.313 E4.66148
G1 X125.465 Y125.848 E4.68823
G1 X125.351 Y126.372 E4.71498
G1 X125.159 Y126.873 E4.74175
G1 X124.896 Y127.34 E4.76849
G1 X124.566 Y127.762 E4.79522
G1 X124.177 Y128.131 E4.82197
G1 X123.737 Y128.439 E4.84876
G1 X123.257 Y128.677 E4.87549
G1 X122.746 Y128.841 E4.90227
G1 X122.217 Y128.928 E4.92901
G1 X121.932 Y128.942 E4.94325
G1 X105.578 Y129.085 E5.75918
G1 X105.043 Y129.05 E5.78593
G1 X104.519 Y128.935 E5.8127
G1 X104.018 Y128.744 E5.83945
G1 X103.551 Y128.481 E5.86619
G1 X103.128 Y128.151 E5.89295
G1 X102.759 Y127.762 E5.9197
G1 X102.345 Y127.131 E5.95735
G1 X100.495 Y123.531 E6.15928
G1 X97.789 Y118.798 E6.43128
G1 X94.827 Y114.235 E6.70269
G1 X91.59 Y109.817 E6.97594
G1 X88.133 Y105.619 E7.24725
G1 X84.427 Y101.604 E7.51985
G1 X81.181 Y98.425 E7.74652
G1 X80.801 Y97.987 E7.77545
G1 X80.238 Y97.222 E7.82283
G1 X79.953 Y96.767 E7.84962
G1 X79.779 Y96.387 E7.87047
G1 X79.557 Y95.813 E7.90118
G1 X79.402 Y95.299 E7.92796
G1 X79.352 Y95.029 E7.94166
G1 X79.241 Y94.261 E7.98037
G1 X79.204 Y93.777 E8.00459
G1 X78.999 Y70.299 E9.17596
G1 X79.034 Y69.764 E9.20271
G1 X79.149 Y69.24 E9.22947
G1 X79.34 Y68.739 E9.25622
G1 X79.603 Y68.272 E9.28296
G1 X79.933 Y67.849 E9.30973
G0 X80.329 Y68.013
G1 X80.712 Y67.683 E9.33495
G1 X81.143 Y67.419 E9.36016
G1 X81.61 Y67.225 E9.38539
G1 X82.101 Y67.107 E9.41059
G1 X82.571 Y67.068 E9.43412
G1 X106.447 Y66.859 E10.62534
G1 X106.951 Y66.895 E10.65055
G1 X107.444 Y67.009 E10.67579
G1 X107.912 Y67.2 E10.70101
G1 X108.344 Y67.462 E10.72622
G1 X108.73 Y67.789 E10.75146
G1 X109.105 Y68.236 E10.78057
G1 X111.962 Y72.357 E11.03074
G1 X115.313 Y76.676 E11.30347
G1 X118.905 Y80.803 E11.57643
G1 X123.939 Y85.993 E11.93715
G1 X124.261 Y86.383 E11.96238
G1 X124.505 Y86.792 E11.98614
G1 X124.853 Y87.489 E12.02501
G1 X125.042 Y87.957 E12.05019
G1 X125.144 Y88.379 E12.07185
G1 X125.302 Y89.304 E12.11867
G1 X125.348 Y89.816 E12.14431
G1 X125.404 Y96.374 E12.4715
G1 X125.397 Y96.607 E12.48313
G1 X125.002 Y102.721 E12.7888
G1 X124.95 Y106.851 E12.99486
G1 X125.101 Y125.316 E13.91611
G1 X125.065 Y125.82 E13.94132
G1 X124.95 Y126.313 E13.96658
G1 X124.759 Y126.781 E13.9918
G1 X124.497 Y127.213 E14.017
G1 X124.17 Y127.598 E14.04221
G1 X123.786 Y127.928 E14.06747
G1 X123.356 Y128.192 E14.09264
G1 X122.889 Y128.386 E14.11787
G1 X122.397 Y128.503 E14.1431
G1 X121.929 Y128.542 E14.16653
G1 X105.575 Y128.685 E14.98246
G1 X105.071 Y128.649 E15.00767
G1 X104.578 Y128.535 E15.03292
G1 X104.11 Y128.344 E15.05814
G1 X103.678 Y128.082 E15.08334
G1 X103.292 Y127.755 E15.10858
G1 X102.962 Y127.372 E15.1338
G1 X102.701 Y126.948 E15.15864
G1 X100.855 Y123.356 E15.36013
G1 X98.134 Y118.595 E15.63371
G1 X95.141 Y113.986 E15.90789
G1 X91.913 Y109.58 E16.18038
G1 X88.437 Y105.358 E16.45322
G1 X84.708 Y101.319 E16.72748
G1 X81.461 Y98.139 E16.95422
G1 X81.123 Y97.75 E16.97993
G1 X80.56 Y96.985 E17.02732
G1 X80.293 Y96.555 E17.05257
G1 X80.152 Y96.242 E17.0697
G1 X79.93 Y95.668 E17.1004
G1 X79.748 Y94.972 E17.13629
G1 X79.637 Y94.204 E17.17501
G1 X79.604 Y93.774 E17.19652
G1 X79.399 Y70.296 E18.36789
G1 X79.435 Y69.792 E18.3931
G1 X79.549 Y69.299 E18.41834
G1 X79.74 Y68.831 E18.44356
G1 X80.002 Y68.399 E18.46877
G1 X80.329 Y68.013 E18.49401
G1 F600 E15.99401
G0 F1470 X83.197 Y69.59
G0 X83.208 Y70.867
G0 X102.878 Y83.879
G0 X120.983 Y95.74
G0 X121.054 Y95.81
;TYPE:WALL-INNER
G1 F600 E18.49401
G1 F1470 X121.055 Y96.009 E18.50393
G1 X121.306 Y124.756 E19.93818
G1 X106.124 Y124.889 E20.69565
G1 X105.87 Y95.945 E22.13972
G1 X85.844 Y96.12 E23.13886
G1 X85.438 Y96.091 E23.15917
G1 X85.07 Y96.006 E23.17801
G1 X84.723 Y95.866 E23.19668
G1 X84.402 Y95.673 E23.21537
G1 X84.112 Y95.43 E23.23424
G1 X83.868 Y95.149 E23.25281
G1 X83.667 Y94.826 E23.27179
G1 X83.519 Y94.478 E23.29066
G1 X83.428 Y94.114 E23.30937
G1 X83.394 Y93.727 E23.32876
G1 X83.195 Y71.053 E24.46001
G1 X83.194 Y70.853 E24.46999
G1 X83.394 Y70.852 E24.47645
G1 X105.886 Y70.655 E25.59862
G1 X106.003 Y84.025 E26.26568
G1 X106.05 Y84.565 E26.29272
G1 X106.189 Y85.113 E26.32093
G1 X106.41 Y85.633 E26.34912
G1 X106.711 Y86.112 E26.37734
G1 X107.084 Y86.538 E26.40559
G1 X107.516 Y86.9 E26.43371
G1 X108.001 Y87.191 E26.46193
G1 X108.527 Y87.4 E26.49017
G1 X109.075 Y87.526 E26.51822
G1 X109.609 Y87.564 E26.54493
G1 X119.107 Y87.481 E27.0188
G1 X119.509 Y87.509 E27.03891
G1 X119.875 Y87.593 E27.05764
G1 X120.23 Y87.735 E27.07672
G1 X120.547 Y87.924 E27.09513
G1 X120.835 Y88.165 E27.11387
G1 X121.087 Y88.454 E27.13299
G1 X121.281 Y88.763 E27.1512
G1 X121.432 Y89.116 E27.17035
G1 X121.525 Y89.486 E27.18939
G1 X121.558 Y89.863 E27.20827
G1 X121.608 Y95.606 E27.4948
G1 X121.609 Y95.806 E27.50477
G1 X121.409 Y95.807 E27.51124
G1 X121.254 Y95.809 E27.51897
G1 X121.253 Y95.81 E27.51904
G1 X121.054 Y95.81 E27.52545
G0 X121.457 Y96.207
;TYPE:WALL-OUTER
G1 X121.458 Y96.406 E27.53538
G1 X121.709 Y125.153 E28.96963
G1 X105.728 Y125.293 E29.76695
G1 X105.474 Y96.348 E31.21108
G1 X85.832 Y96.52 E32.19106
G1 X85.377 Y96.488 E32.21382
G1 X84.949 Y96.389 E32.23573
G1 X84.544 Y96.225 E32.25753
G1 X84.171 Y96.001 E32.27924
G1 X83.831 Y95.715 E32.30141
G1 X83.545 Y95.387 E32.32312
G1 X83.31 Y95.01 E32.34528
G1 X83.139 Y94.608 E32.36708
G1 X83.033 Y94.181 E32.38903
G1 X82.994 Y93.74 E32.41111
G1 X82.791 Y70.457 E33.57275
G1 X106.282 Y70.251 E34.74477
G1 X106.403 Y84.006 E35.43103
G1 X106.446 Y84.498 E35.45567
G1 X106.569 Y84.985 E35.48073
G1 X106.766 Y85.447 E35.50579
G1 X107.033 Y85.873 E35.53087
G1 X107.364 Y86.251 E35.55594
G1 X107.749 Y86.573 E35.58098
G1 X108.179 Y86.831 E35.606
G1 X108.646 Y87.017 E35.63108
G1 X109.134 Y87.129 E35.65606
G1 X109.622 Y87.164 E35.68046
G1 X119.118 Y87.081 E36.15424
G1 X119.57 Y87.112 E36.17684
G1 X119.995 Y87.21 E36.1986
G1 X120.407 Y87.374 E36.22073
G1 X120.777 Y87.596 E36.24225
G1 X121.115 Y87.878 E36.26421
G1 X121.41 Y88.216 E36.2866
G1 X121.637 Y88.579 E36.30796
G1 X121.812 Y88.988 E36.33015
G1 X121.92 Y89.415 E36.35212
G1 X121.958 Y89.85 E36.37391
G1 X122.011 Y96.003 E36.6809
G1 X122.012 Y96.203 E36.69087
G1 X121.812 Y96.204 E36.69733
G1 X121.657 Y96.206 E36.70507
G1 X121.656 Y96.207 E36.70514
G1 X121.457 Y96.207 E36.71155
G0 X121.458 Y96.406
G0 X120.96 Y96.408
G0 X121.013 Y95.902
G0 X121.215 Y95.418
;TYPE:SKIN
G1 X120.66 Y95.422 E36.73924
G1 X120.912 Y124.37 E38.18352
G1 X106.51 Y124.495 E38.90206
G1 X106.256 Y95.551 E40.34614
G1 X85.856 Y95.73 E41.36394
G1 X85.495 Y95.704 E41.382
G1 X85.184 Y95.633 E41.39791
G1 X84.899 Y95.518 E41.41324
G1 X84.628 Y95.354 E41.42905
G1 X84.39 Y95.155 E41.44452
G1 X84.18 Y94.913 E41.46051
G1 X84.014 Y94.646 E41.47619
G1 X83.89 Y94.353 E41.49207
G1 X83.814 Y94.048 E41.50775
G1 X83.784 Y93.714 E41.52448
G1 X83.588 Y71.239 E42.6458
G1 X105.5 Y71.049 E43.73904
G1 X105.613 Y84.044 E44.38739
G1 X105.664 Y84.63 E44.41673
G1 X105.818 Y85.238 E44.44802
G1 X106.063 Y85.814 E44.47925
G1 X106.397 Y86.346 E44.51059
G1 X106.811 Y86.817 E44.54188
G1 X107.289 Y87.218 E44.57301
G1 X107.827 Y87.542 E44.60434
G1 X108.41 Y87.773 E44.63562
G1 X109.017 Y87.912 E44.66669
G1 X109.597 Y87.954 E44.6957
G1 X119.084 Y87.871 E45.16903
G1 X119.457 Y87.897 E45.18768
G1 X119.759 Y87.967 E45.20315
G1 X120.058 Y88.087 E45.21922
G1 X120.321 Y88.242 E45.23445
G1 X120.561 Y88.444 E45.2501
G1 X120.774 Y88.689 E45.2663
G1 X120.931 Y88.939 E45.28103
G1 X121.063 Y89.246 E45.2977
G1 X121.14 Y89.553 E45.31349
G1 X121.168 Y89.867 E45.32922
G1 X121.215 Y95.418 E45.60617
G0 X107.493 Y86.932
G0 X107.057 Y86.566
G0 X106.679 Y86.135
G0 X106.375 Y85.651
G0 X106.152 Y85.125
G0 X106.039 Y84.677
G0 X105.173 Y71.232
G1 X105.322 Y71.381 E45.61668
G0 X105.327 Y71.951
G1 X104.612 Y71.237 E45.66709
G1 X104.542 Y71.167
G0 X104.052 Y71.242
G1 X105.332 Y72.522 E45.75741
G1 X105.402 Y72.592
G0 X105.336 Y73.092
G1 X103.491 Y71.247 E45.88758
G1 X103.421 Y71.177
G0 X102.93 Y71.252
G1 X105.341 Y73.663 E46.05769
G1 X105.411 Y73.733
G0 X105.347 Y74.234
G1 X102.369 Y71.257 E46.26777
G1 X102.299 Y71.187
G0 X101.808 Y71.261
G1 X105.352 Y74.805 E46.51782
G1 X105.422 Y74.875
G0 X105.357 Y75.376
G1 X101.247 Y71.266 E46.8078
G1 X101.177 Y71.196
G0 X100.687 Y71.271
G1 X105.362 Y75.946 E47.13765
G1 X105.432 Y76.016
G0 X105.367 Y76.517
G1 X100.126 Y71.276 E47.50743
G1 X100.056 Y71.206
G0 X99.565 Y71.281
G1 X105.372 Y77.088 E47.91714
G1 X105.442 Y77.158
G0 X105.377 Y77.658
G1 X99.004 Y71.286 E48.36676
G1 X98.934 Y71.216
G0 X98.443 Y71.29
G1 X105.382 Y78.229 E48.85634
G1 X105.452 Y78.299
G0 X105.387 Y78.799
G1 X97.882 Y71.295 E49.38582
G1 X97.812 Y71.225
G0 X97.321 Y71.3
G1 X105.392 Y79.37 E49.95524
G1 X105.462 Y79.44
G0 X105.397 Y79.941
G1 X96.761 Y71.305 E50.56456
G1 X96.691 Y71.235
G0 X96.2 Y71.31
G1 X105.402 Y80.511 E51.21377
G1 X105.472 Y80.581
G0 X105.406 Y81.082
G1 X95.639 Y71.315 E51.90289
G1 X95.569 Y71.245
G0 X95.078 Y71.319
G1 X105.411 Y81.653 E52.63197
G1 X105.481 Y81.723
G0 X105.416 Y82.223
G1 X94.517 Y71.324 E53.40095
G1 X94.447 Y71.254
G0 X93.956 Y71.329
G1 X105.421 Y82.794 E54.20987
G1 X105.491 Y82.864
G0 X105.426 Y83.365
G1 X93.396 Y71.334 E55.05869
G1 X93.326 Y71.264
G0 X92.835 Y71.339
G1 X105.431 Y83.935 E55.9474
G1 X105.501 Y84.005
G0 X105.475 Y84.545
G1 X92.274 Y71.344 E56.87881
G1 X92.204 Y71.274
G0 X91.713 Y71.349
G1 X105.641 Y85.276 E57.86147
G1 X105.711 Y85.346
G0 X106.25 Y86.451
G1 X91.152 Y71.353 E58.92671
G1 X91.082 Y71.283
G0 X90.591 Y71.358
G1 X120.529 Y101.296 E61.039
G1 X120.599 Y101.366
G0 X120.524 Y100.725
G1 X107.06 Y87.261 E61.98896
G1 X106.99 Y87.191
G0 X108.281 Y87.916
G1 X120.519 Y100.155 E62.85245
G1 X120.589 Y100.225
G0 X120.515 Y99.584
G1 X109.023 Y88.092 E63.66327
G1 X108.953 Y88.022
G0 X109.629 Y88.133
G1 X120.51 Y99.014 E64.43099
G1 X120.58 Y99.084
G0 X120.505 Y98.443
G1 X110.19 Y88.128 E65.15876
G1 X110.12 Y88.058
G0 X110.751 Y88.123
G1 X120.5 Y97.872 E65.84661
G1 X120.57 Y97.942
G0 X120.495 Y97.302
G1 X111.312 Y88.118 E66.49455
G1 X111.242 Y88.048
G0 X111.872 Y88.113
G1 X120.49 Y96.731 E67.1026
G1 X120.56 Y96.801
G0 X120.485 Y96.16
G1 X112.433 Y88.109 E67.67068
G1 X112.363 Y88.039
G0 X112.994 Y88.104
G1 X120.48 Y95.59 E68.19886
G1 X120.55 Y95.66
G0 X120.696 Y95.24
G1 X113.555 Y88.099 E68.70269
G1 X113.485 Y88.029
G0 X114.116 Y88.094
G1 X121.031 Y95.009 E69.19058
G1 X121.101 Y95.079
G0 X121.026 Y94.439
G1 X114.677 Y88.089 E69.63857
G1 X114.607 Y88.019
G0 X115.237 Y88.084
G1 X121.021 Y93.868 E70.04667
G1 X121.091 Y93.938
G0 X121.016 Y93.297
G1 X115.798 Y88.08 E70.41479
G1 X115.728 Y88.01
G0 X116.359 Y88.075
G1 X121.012 Y92.727 E70.74305
G1 X121.082 Y92.797
G0 X121.007 Y92.157
G1 X116.92 Y88.07 E71.03141
G1 X116.85 Y88
G0 X117.48 Y88.065
G1 X121.002 Y91.586 E71.27987
G1 X121.072 Y91.656
G0 X120.997 Y91.015
G1 X118.041 Y88.06 E71.4884
G1 X117.971 Y87.99
G0 X118.602 Y88.055
G1 X120.992 Y90.445 E71.65702
G1 X121.062 Y90.515
G0 X120.988 Y89.875
G1 X119.17 Y88.058 E71.78526
G1 X119.1 Y87.988
G0 X119.894 Y88.215
G1 X120.821 Y89.143 E71.8507
G1 X120.891 Y89.213
G0 X120.534 Y101.867
G1 X90.03 Y71.363 E74.00292
G1 X89.96 Y71.293
G0 X89.47 Y71.368
G1 X120.539 Y102.437 E76.19501
G1 X120.609 Y102.507
G0 X120.545 Y103.009
G1 X88.909 Y71.373 E78.4271
G1 X88.839 Y71.303
G0 X88.348 Y71.378
G1 X120.55 Y103.579 E80.69909
G1 X120.62 Y103.649
G0 X120.555 Y104.15
G1 X87.787 Y71.382 E83.01105
G1 X87.717 Y71.312
G0 X87.226 Y71.387
G1 X120.56 Y104.721 E85.36294
G1 X120.63 Y104.791
G0 X120.565 Y105.291
G1 X86.665 Y71.392 E87.75473
G1 X86.595 Y71.322
G0 X86.105 Y71.397
G1 X120.57 Y105.862 E90.18642
G1 X120.64 Y105.932
G0 X120.575 Y106.433
G1 X85.544 Y71.402 E92.65805
G1 X85.474 Y71.332
G0 X84.983 Y71.407
G1 X120.58 Y107.003 E95.16958
G1 X120.65 Y107.073
G0 X120.585 Y107.574
G1 X84.422 Y71.412 E97.72103
G1 X84.352 Y71.342
G0 X83.861 Y71.416
G1 X120.589 Y108.144 E100.31239
G1 X120.659 Y108.214
G0 X120.594 Y108.715
G1 X83.772 Y71.892 E102.91042
G1 X83.702 Y71.822
G0 X83.777 Y72.463
G1 X120.599 Y109.286 E105.50845
G1 X120.669 Y109.356
G0 X120.604 Y109.856
G1 X106.435 Y95.687 E106.50815
G1 X106.365 Y95.617
G0 X106.119 Y95.371
G1 X83.782 Y73.034 E108.08414
G1 X83.712 Y72.964
G0 X83.787 Y73.605
G1 X105.558 Y95.375 E109.62017
G1 X105.628 Y95.445
G0 X104.997 Y95.38
G1 X83.792 Y74.176 E111.11626
G1 X83.722 Y74.106
G0 X83.797 Y74.746
G1 X104.436 Y95.385 E112.57245
G1 X104.506 Y95.455
G0 X103.876 Y95.39
G1 X83.802 Y75.317 E113.98875
G1 X83.732 Y75.247
G0 X83.807 Y75.888
G1 X103.315 Y95.395 E115.36511
G1 X103.385 Y95.465
G0 X102.754 Y95.4
G1 X83.812 Y76.458 E116.70157
G1 X83.742 Y76.388
G0 X83.817 Y77.029
G1 X102.193 Y95.405 E117.99809
G1 X102.263 Y95.475
G0 X101.633 Y95.41
G1 X83.822 Y77.6 E119.25472
G1 X83.752 Y77.53
G0 X83.827 Y78.17
G1 X101.072 Y95.415 E120.47145
G1 X101.142 Y95.485
G0 X100.511 Y95.42
G1 X83.832 Y78.741 E121.64824
G1 X83.762 Y78.671
G0 X83.837 Y79.311
G1 X99.95 Y95.425 E122.78514
G1 X100.02 Y95.495
G0 X99.39 Y95.43
G1 X83.842 Y79.882 E123.88213
G1 X83.772 Y79.812
G0 X83.847 Y80.453
G1 X98.829 Y95.435 E124.93919
G1 X98.899 Y95.505
G0 X98.268 Y95.44
G1 X83.852 Y81.023 E125.95635
G1 X83.782 Y80.953
G0 X83.857 Y81.595
G1 X97.708 Y95.445 E126.93358
G1 X97.778 Y95.515
G0 X97.147 Y95.45
G1 X83.862 Y82.165 E127.87091
G1 X83.792 Y82.095
G0 X83.867 Y82.736
G1 X96.586 Y95.455 E128.7683
G1 X96.656 Y95.525
G0 X96.025 Y95.459
G1 X83.872 Y83.307 E129.62573
G1 X83.802 Y83.237
G0 X83.877 Y83.877
G1 X95.464 Y95.464 E130.44325
G1 X95.534 Y95.534
G0 X94.903 Y95.469
G1 X83.882 Y84.448 E131.22085
G1 X83.812 Y84.378
G0 X83.887 Y85.018
G1 X94.342 Y95.474 E131.95854
G1 X94.412 Y95.544
G0 X93.782 Y95.479
G1 X83.892 Y85.589 E132.65633
G1 X83.822 Y85.519
G0 X83.897 Y86.16
G1 X93.221 Y95.484 E133.31419
G1 X93.291 Y95.554
G0 X92.66 Y95.489
G1 X83.902 Y86.73 E133.93215
G1 X83.832 Y86.66
G0 X83.907 Y87.301
G1 X92.099 Y95.494 E134.51017
G1 X92.169 Y95.564
G0 X91.539 Y95.499
G1 X83.912 Y87.872 E135.0483
G1 X83.842 Y87.802
G0 X83.917 Y88.442
G1 X90.978 Y95.503 E135.54649
G1 X91.048 Y95.573
G0 X90.417 Y95.508
G1 X83.922 Y89.013 E136.00475
G1 X83.852 Y88.943
G0 X83.927 Y89.584
G1 X89.857 Y95.513 E136.42311
G1 X89.927 Y95.583
G0 X89.296 Y95.518
G1 X83.932 Y90.155 E136.80153
G1 X83.862 Y90.085
G0 X83.937 Y90.726
G1 X88.735 Y95.523 E137.14002
G1 X88.805 Y95.593
G0 X88.174 Y95.528
G1 X83.942 Y91.296 E137.43861
G1 X83.872 Y91.226
G0 X83.947 Y91.867
G1 X87.614 Y95.533 E137.6973
G1 X87.684 Y95.603
G0 X87.053 Y95.538
G1 X83.952 Y92.437 E137.91609
G1 X83.882 Y92.367
G0 X83.957 Y93.008
G1 X86.492 Y95.543 E138.09495
G1 X86.562 Y95.613
G0 X85.931 Y95.548
G1 X83.962 Y93.579 E138.23388
G1 X83.892 Y93.509
G0 X84.043 Y94.225
G1 X85.289 Y95.471 E138.32179
G1 X85.359 Y95.541
G0 X105.898 Y95.917
G0 X106.441 Y96.259
G1 X120.609 Y110.427 E139.32142
G1 X120.679 Y110.497
G0 X120.614 Y110.998
